X:23
T:Notre espoir. [FJ23]
S:Festin joyeux.  Music page 12.
Z:transcribed by Eric Conrad, 2021.
N:NB The meter is given simply as "3"
N:NB G is the second line of the staff (lines: EGBdf), so back to normal?
N:NB MS has a four-dot repeat in the middle, with no marks at start or end.
N:NB Repeat marks were added at beginning and end.
N:NB The MS repeat mark is 4 vertical dots enclosed by bars on both sides.
N:NB The plus signs seem to indicate some kind of roll or trill.
M:3/4
L:1/4
K:C % no sharps or flats ending on C.
|: e2f | g>ag | fef | e/f/e/ (d/c) | e2f | g>ag |
fdg | "^+"e3 :: "^+"B2c | d>ef | "^+"e>dc | d2G |
"^+"B2c | d>ef | e f/e/d/c/ | dGc | d"^+"d>c | c3 :|


